X:85
T:Acacian Harmony 
R:waltz
C: 1999, 2010 L.E. McCullough 
M:3/4
L:1/8
K:G
DE|: G3A AG | BA G2 Bd | e3g Bd | ed B2AG |
A3D AD | B2A2 GF | G3c BG | A4 DE|
G3A AG | BA G2 Bd | e3g Bd | ed B2AG |
A3D AD | B2A2 Bd | e3d BA |1 G4 DE :|2 G4 Bd |]
|: g2f2 Bd | e2d2 GA | B3d eg | B4 GA |
BA Bd eg | ed3 GA | BA Bd cB | A4 FG |
A3D AB | c2B2 AG | AD FG AB | c4 Bc |
d2e2g2 | e3d Bc | d3e dG |1 A4 Bd :|2 A4 DE|]

